!!!COM: Ce/cile Chaminade
!!!CNT: Francais
!!!TXO: Francais
!!!OTL: "Fleur jete/e"
!!!LYR: Silvestre, Armand
!!!ENC: Amanda Harris
!!!YOR: Album of Songs, Volume 1
!!!YOR: Da Capo Press
!!!ODT: 1889/
!!NB: Vocal melody and text encoded
**kern	**silbe
*clefG2	*
*k[b-e-a-]	*
*M4/4	*
*MM[72]	*
=3	=3
8r	.
{8cc	{Em-
8ee-	-por-
8cc	-te
8g	ma
8e-	fo-
[4c	-li-
=4	=4
8c]	|
8c	-e Au
8.c	gre/
16Bn	du
2c}	vent,}
=5	=5
*M3/4	*
8r	.
{8e-	{Fleur
8f	en
8g	chan-
8e-	-tant
8b-	cueil-
=6	=6
*M4/4	*
2b-	-li-
2c}	-e}
=7	=7
*M3/4	*
8r	.
{8f	{Et
8g	je-
8a-	-te/e
8f	en
8cc	re^-
=8	=8
*M4/4	*
2cc	-vant,
2bn}	|}
=9	=9
8r	.
{8cc	{Em-
8een	-por-
8cc	-te
8g	ma
8en	fo-
[4c	-li
=10	=10
2c_	|
8c]	|
8c	-e Au
8.c	gre/
16Bn	du
=11	=11
[2c	vent:
8c]}	|}
8r	.
4r	.
=13	=13
8r	.
{8cc	{Com-
8ee-	-me
8cc	la
8g	fleur
8e-	fau-
[4c	-che/-
=14	=14
8c]	-e
8c	Pe/-
8.c	-rit
16Bn	l'a-
2c}	-mour;}
=15	=15
*M3/4	*
8r	.
{8e-	{La
8f	main
8g	qui
8e-	t'a
8b-	tou-
=16	=16
*M4/4	*
2b-	-che/-
2c}	-e}
=17	=17
*M3/4	*
8r	.
{8f	{Fuit
8g	ma
8a	main
8f	sans
8cc	re-
=18	=18
*M4/4	*
2cc	-tour.
2bn}	|}
=19	=19
8r	.
{8cc	{Com-
8een	-me
8cc	la
8g	fleur
8en	fau-
[4c	-che/-
=20	=20
2c]	|
8c	-e
8c	Pe/-
8.c	-rit
16Bn	l'a-
=21	=21
[2c	-mour.
8c]}	|}
8r	.
4r	.
=23	=23
8r	.
{8cc	{Que
8ee-	le
8cc	vent
8g	qui
8e-	te
[4c	se\-
=24	=24
8c]	|
8c	-che O^
8.c	pau-
16Bn	-vre
2c}	fleur,}
=25	=25
*M3/4	*
8r	.
{8e-	{Tout
8f	a\
8g	l'heu-
8e-	-re
8b-	si
=26	=26
*M4/4	*
2b-	frai^-
2c}	-che}
=27	=27
*M3/4	*
8r	.
{8f	{Et
8g	de-
8a-	-main
8f	sans
8cc	cou-
=28	=28
*M4/4	*
2cc	-leur;
2bn}	|}
=29	=29
8r	.
{8cc	{Que
8een	le
8cc	vent
8g	qui
8en	te
[4c	se\-
=30	=30
2c]	|
[2c	-che,
=31	=31
8c]}	|}
8r	.
4r	.
8r	.
{8Bn	{Se\-
8Bn	-che
8c	mon
=32	=32
[1G	coeur!
=33	=33
8G]}	|}
8r	.
4r	.
2r	.
*-	*-
